X:1
T:Some Other Day
T:Some Other Day
T:George Coles Stebbins
T:Anna Belle Russell, 1917
T:Public Domain Courtesy of the Cyber Hymnal™
T:Public Domain Courtesy of the Cyber Hymnal™
C:George Coles Stebbins
Z:Public Domain
Z:Courtesy of the Cyber Hymnal™
%%score ( 1 2 ) 3
L:1/8
Q:1/4=90
M:3/4
K:Eb
V:1 treble 
V:2 treble 
V:3 bass 
V:1
 GF E | B3 c BE | [B,EG]4 [B,_DG]2 | F3 C ED | !fermata![G,B,E]3 G ^FG | c3 G [GB][^F=A] | %6
w: 1.~Some oth- er|day, some oth- er|time, I’ll|give to God my|heart. Words such as|these are oft- en|
w: 2.~Some oth- er|day, some oth- er|time, I|will a Christ- ian|be; O yes, I|know I should, but|
w: 3.~Some oth- er|day, some oth- er|time, For|Heav’n I will pre-|pare; Aye, there, I|sure- ly mean to|
w: 4.~Some oth- er|day, some oth- er|time? Take|warn- ing from God’s|Word. There’s al- ways|dan- ger in de-|
 [FA]3 A GA | d3 A c_c | B3 B =AB | e3 B d_d | [EAc]4 [EAc]2 | B3 e GF | !fermata![G,B,E]3 || %13
w: heard, They soothe the|con- science truth has|stirred; An- oth- er|chance of life de-|ferred, They|bid the Lord de-|part.|
w: still Just now I|want my own sweet|will, Of world- ly|plea- sures want my|fill, Not|now to bend the|knee.|
w: go, I’ll not be|lost, the way I|know, There’s al- ways|time while here be-|low, I’ll|Heav- en’s glo- ries|share.|
w: lay, You’ve on- ly|prom- ise of to-|day, Ac- cept the|Sav- ior while you|may, And|know your prayer is|heard.|
"^Refrain" [GB][^F=A] [GB] | (z [Beg] [egb])[EG] [GB][^F=A] | z [Bdf] [dfa]2 [Ec]2 | %16
w: |||
w: |||
w: |||
w: |||
 z [Bdf] [Ac][AB] [Ac][Ac] | z [GBe] [Beg][GB] [^F=A][GB] | z [GBe] [Beg][GB] [^F=A][GB] | %19
w: |||
w: |||
w: |||
w: |||
 z [Ace] [cea]2 [Ac]2 | [GB]3 [Ge] [EG][DF] | (z [Ace] [GBe]) |] %22
w: |||
w: |||
w: |||
w: |||
V:2
 x3 | [EG]4 [B,E]2 | x6 | [A,C]4 A,2 | x6 | =E4 x2 | x6 | [DF]4 x2 | x6 | [EG]4 [EB]2 | x6 | %11
 [EG]4 [B,D]2 | x3 || x3 | [Ge]3 x3 | [FA]4 x2 | [Fd]3 x3 | [GB]3 x3 | [GB]3 x3 | [Ac]4 x2 | x6 | %21
 E3 |] %22
V:3
 z3 | (E,,B,,) [E,G,]2 [E,G,]2 | (E,,B,,) [E,G,]4 | (A,,C,) [F,A,]2 [B,,A,]2 | %4
w: |~ * ~ ~|~ * ~|~ * ~ ~|
 (E,,B,, !fermata!E,) z3 | (C,,G,,) [C,G,]2 [C,C]2 | (F,,C,) [F,A,]2 z2 | %7
w: ~ * *|~ * ~ ~|~ * ~|
 (B,,D,) [F,B,]2 [B,,A,]2 | (E,,B,, E,) z3 | (E,,B,,) [E,B,]2 [G,,G,]2 | (A,,E, [A,C]2) [A,,A,]2 | %11
w: ~ * ~ ~|~ * *|~ * ~ ~|~ * * ~|
 (B,,E,) [G,B,]2 [B,,A,]2 | (E,,B,, E,) || [E,D][E,D] [E,D] | [E,B,]3 [E,B,] [B,,B,][C,C] | %15
w: ~ * ~ ~|~ * *|To- day thy|God is call- ing|
 [D,B,]4 [B,,B,]2 | [B,,B,]3 [B,,E] [B,,D][B,,D] | [E,E]3 [B,,E] [B,,D][B,,D] | %18
w: thee, “My|son, give Me thine|heart.” His grace a-|
 [E,E]3 [E,E] [E,E][E,E] | [A,E]4 [A,,E]2 | [B,,E]3 [B,,B,] [B,,B,][B,,A,] | [E,G,]3 |] %22
w: lone can sa- tis-|fy: Choose|now the bet- ter|part.|

